X:1
T:En attendant
T:En attendant
T:Petit Jean de Latre
C:Petit Jean de Latre
%%score [ 1 2 [ 3 4 ] ]
L:1/8
Q:1/4=120
M:2/2
K:C
V:1 treble nm="Soprano" snm="S"
V:2 treble nm="Alto" snm="A"
V:3 treble-8 nm="Tenor 1" snm="T 1"
V:4 treble-8 nm="Tenor 2" snm="T 2"
V:1
 A8 | d6 d2 | c8 | z2 c2 c2 A2 | B2 A4 G2 | A8 | e4 e2 c2 | d2 e2 f4 | e2 cd ec f2- | f2 e4 d2- | %10
w: En|at- ten-|dant,|le con- fort|de m'a- my-|e,|le con- fort|de m'a- my-|e, de _ _ _ m'a-|* my- *|
 d2 cB c4 | A8- | A4 z2 c2 | d2 c2 d4 | c2 e2 e2 e2 | d2 c2 B4 | d2 f2 f2 f2 | e2 d4 cB | %18
w: |e,|_ le|coeur me trem-|ble et si ne|scay pour- *|quoy, et si ne|scay _ _ _|
 c2 B4 A2- | A2 ^G2 A2 e2 | f2 d2 c4 | z4 e4 | f3 d e2 d2- | d2 ^c2 d4- | d8 | z4 e4 | %26
w: _ _ _|* pour- quoy, si|ce n'es- toit,|si|ce _ _ n'es-|* * toit,|_|l'ex-|
 f2 f2 g2 g2 | fedf e2 d2- | d2 ^c2 d4 | z8 | d4 f4- | f2 e2 d2 c2 | B4 A2 A2 | c3 c B2 A2- | %34
w: tre- me de ma|vi- * * * * *|* * e,||l'ex- tre-|* me de ma|vi- e, l'ex-|tre- me de ma|
 A2 ^G2 A4 |: z4 A4 | d6 d2 | c4 z2 e2 | f2 e2 z2 e2 | f2 e2 d2 c2 | d3 e f2 e2- | e2 d4 ^c2 |1 %42
w: _ vi- e.|Si|fort trem-|bler ne|pour- roy, ne-|pour- roy sur ma|_ _ _ _||
[M:2/4] d4 :|2[M:2/2] d8- || d8- | d8- | d8 |] %47
w: foy.|foy.|_|||
V:2
 E8 | A6 A2 | A2 A,2 C3 D | E2 F2 E2 D2- | D2 C2 D4 | E4 E4 | E6 E2 | D2 C2 D4 | E2 E2 A4 | A8- | %10
w: En|at- ten-|dant, le con- fort|de m'a my- *|* * e,|le con-|fort de|m'a my- e,|de m'a- my-|e,|
 A8 | z2 E2 F2 E2 | F4 E2 A2 |"^b""^b" B2 A2 B4 | A2 c2 c2 c2 | B2 A4 G2 | A2 A2 A2 A2 | %17
w: _|le coeur me|trem- ble, le|coeur me trem-|ble et si ne|scay pour- *|quoy,- et si ne|
 G2 F2 E2 F2- | F2 G3 FED | E4 z2 A2 | F2 G2 A4 | z4 A4 | F4 _B4 | A4 z2 F2- | F2 G4 F2 | %25
w: scay pour- quoy, pour-||quoy, si|ce n'es- toit,|si|ce n'es-|toit, l'ex-|* tre- me|
 E2 D4 C2 | D2 A2 _B4- | B2 A2 G2 F2 | E4 D2 A2 | _B2 A2 G2 F2 | G4 A4- |"^b" A2 c2 B2 A2 | %32
w: de ma vi-|e, l'ex- tre-|* me de ma|vi- e, l'ex-|tre- me de ma|vi- e,|_ l'ex- tre- me|
 G4 F2 A2- | A2 G3 FED | E8 |: z4 E4 | A6 A2 | A4 z2 A2 | d2 c2 z2 A2 | d2 A2 _B2 AG | %40
w: de ma vi-||e.|Si|fort trem-|bler ne|pour- roy, ne|pour- roy sur ma _|
 F2 F2 c2 B2 | A2 G2 A4- |1[M:2/4] A4 :|2[M:2/2] z2 A2 _B2 A2 || G4 D2 G2- | G2 ^FE F4 | F8 |] %47
w: foy, ne por- roy|sur ma foy|_|ne pour- roy|sur _ ma|_ _ _ foy.|_|
V:3
 c8 | f6 f2 | e4 z2 A2 | c3 d e2 f2 | d2 f4 ed | c2 A2 c4 | z2 A2 c3 B | A2 G2 A4 | A2 e2 e2 c2 | %9
w: En|at- ten-|dant, le|con- fort de m'a-|my- * * *|* * e,|le con- fort|de m'a- my-|e, le con- fort|
 d2 e2 f4 | e4 z4 | c4 d2 c2 | d4 c2 e2 | f2 e2 g4 | e2 a2 a2 e2 | g2 a2 e4 | z8 | z4 e4 | %18
w: de m'a- my-|e,|le coeur me|trem- ble, le|coeur me trem-|ble et si ne|scay pour- quoy,||et|
 e2 e2 d2 c2 | B4 A4 | z4 e4 | f2 d2 c4 | z2 d2 g4 | e4 d2 A2 | d6 c2 |"^b" B2 A2 G4 | %26
w: si ne scay pour-|quoy, _|si|ce n'es- toit,|si ce|n'es- toit l'ex-|tre- me|de ma vi-|
 A2 A2 G2 G2 | d3 A c2 d2 | A2 e2 f4- | f2 e2 d2 c2 |"^b" B4 A2 z2 | z8 | d4 f4- | f2 e2 d2 c2 | %34
w: e, l'ex- tre- me|de ma vi- *|e, l'ex- tre-|* me de ma|vi- e,||l'ex- tre-|* me de ma|
 B4 A4 |: z4 c4 | f6 f2 | e8 | z2 e2 f2 e2 | z2 e2 f2 e2 | defg a2 g2 | f2 ed e4 |1[M:2/4] d4 :|2 %43
w: vi- e.|Si|fort trem-|bler|ne pour- quoy,|ne pour- quoy|sur _ _ _ _ ma|_ _ _ foy,|_|
[M:2/2] d2 d2 g2 fe || dc d2 dc_BA | _B2 B2 A4- | A8 |] %47
w: ne pour- quoy sur _|ma _ foy, sur _ _ _|_ ma foy.|_|
V:4
 A8 | D6 D2 | A8 | z2 A2 A2 F2 | G2 A2 _B4 | A4 z2 A2 | c3 B A3 G | F2 E2 D4 | A2 A2 A2 A2 | %9
w: En|at- ten-|dant,|le con- fort|de m'a- my-|e, le|con- fort de m'a-|my- * e,|le con- fort de|
 d2 c2 d4 | A8 | z2 A2 D2 A2 | DEFG A2 AA | d2 A2 G4 | A4 z4 | z8 | d4 d2 A2 | c2 d2 A4 | %18
w: m'a- my- *|e,|le coeur me|trem- * * * * ble, le|coeur me trem-|ble||et si ne|scay pour- qoy,|
 A2 E2 G2 A2 | E4 A4 | z4 A4 | F2 G2 A2 A2 | d4 G4 | A4 D4 | _B6 A2 | G2 F2 E4 | D4 z4 | z8 | %28
w: et si ne scay|pour- quoy,|si|ce n'es- toit, si|ce n'es-|toit l'ex-|tre me|de ma vi-|e,||
 z2 A2 d4- | d2 c2 _B2 A2 | G4 D2 d2 | d2 A2 _B2 F2 | G4 D2 F2- | FE C2 G2 A2 | E4 A4 |: z4 A4 | %36
w: l'x- tre-|* me de ma|vi- e, l'ex-|tre- me de ma|vi- e, de|_ _ _ ma vi-|* e.|Si|
 D6 D2 | A8 | z2 A2 d2 A2 | z2 A2 d2 A2 | _B3 A/G/ F2 G2 | A2 _B2 A4 |1[M:2/4] D4 :|2 %43
w: fort trem-|bler|ne pour- roy,|ne pour- roy|sur _ _ _ ma|foy, sur ma|foy,|
[M:2/2] D4 z2 D2 || G2 D2 G4- | G2 G2 D4- | D8 |] %47
w: foy, ne|pour- roy sur|_ ma foy.|_|

